lib/functional/arrows/arrow-square-down-left.svg

<svg xmlns="http://www.w3.org/2000/svg" fill="none" stroke="currentColor" aria-hidden="true" viewBox="0 0 32 32"><g id="Icon-ArrowSquareDownLeft"><g clip-path="url(#clip0_4_1781)"><g id="size=md (32px)"><g id="ArrowSquareDownLeft"><path id="Vector" stroke-linecap="round" stroke-linejoin="round" stroke-width="2" d="M5 6L5 26C5 26.5523 5.44772 27 6 27H26C26.5523 27 27 26.5523 27 26V6C27 5.44772 26.5523 5 26 5H6C5.44772 5 5 5.44772 5 6Z"/><path id="Vector_2" stroke-linecap="round" stroke-linejoin="round" stroke-width="2" d="M18.5 19.5H12.5V13.5"/><path id="Vector_3" stroke-linecap="round" stroke-linejoin="round" stroke-width="2" d="M19.5 12.5L12.5 19.5"/></g></g></g></g><defs><clipPath id="clip0_4_1781"><rect width="32" height="32" fill="white" rx="5"/></clipPath></defs></svg>

<svg xmlns="http://www.w3.org/2000/svg" fill="none" stroke="currentColor" aria-hidden="true" viewBox="0 0 32 32"><g stroke="#101828" stroke-linecap="round" stroke-linejoin="round" stroke-width="2" clip-path="url(#a)"><path d="M5 6v20a1 1 0 0 0 1 1h20a1 1 0 0 0 1-1V6a1 1 0 0 0-1-1H6a1 1 0 0 0-1 1Z"/><path d="M18.5 19.5h-6v-6m7-1-7 7"/></g><defs><clipPath id="a"><rect width="32" height="32" fill="#fff" rx="5"/></clipPath></defs></svg>
